X: 134004
Q: "Irish Reel."
M: C
L: 1/8
K: G
|: (uGA) |!segno!\
(uef) |\
g2ge (fg)af | g2ge (fd)df |
g2ge (fg)af | bgef g2(ef) |\
g2ge (fg)af | g2ge (fd)df |\
g2ge (fg)af | bgef gedc |]


